/* XPM */ 
static const unsigned char * field_xpm[] = {
"20 20 5 1",
" 	c None",
"!	c black",
"#	c #1196DB",
"$	c #1296DB",
"%	c #1297DB",
"                    ",
"                    ",
"                    ",
"                    ",
"    ##              ",
"    ##              ",
"    ## $            ",
"    ## $ %%         ",
"    ## $ ##         ",
"    ## $ ## #       ",
"    ## $ ## $       ",
"    ## $ ## $ ##    ",
"    ## $ ## $ ##    ",
"    ## $ ## $ ##    ",
"    ##              ",
"    #$$$$$$$$$$$#   ",
"    #############   ",
"                    ",
"                    ",
"                    "};