/* XPM */ 
static const unsigned char * keyword_xpm[] = {
"20 20 11 1",
" 	c None",
"!	c black",
"#	c #EA9418",
"$	c #EB9619",
"%	c #EA9518",
"&	c #EB9518",
"'	c #EA9619",
"(	c #E99418",
")	c #EB9517",
"*	c #EB9617",
"+	c #EA9618",
"         ##         ",
"        $%%$        ",
"        %%%%        ",
"       $%%%%$       ",
"       %%%%%%       ",
"      #%%%%%%&      ",
"  '(%%%%%%%%%%%%)&  ",
"&%%%%%%%%%%%%%%%%%%#",
"*%%%%%%%%%%%%%%%%%%#",
" %%%%%%%%%%%%%%%%%% ",
"  +%%%%%%%%%%%%%%+  ",
"   #%%%%%%%%%%%%#   ",
"    %%%%%%%%%%%+    ",
"    +%%%%%%%%%%+    ",
"    &%%%%%%%%%%&    ",
"    %%%%%%%%%%%%    ",
"    %%%%%%%%%%%%    ",
"    %%%%%&&%%%%%    ",
"   &%%%&    &%%%&   ",
"    +&        &+    "};