/* XPM */ 
static const unsigned char * table_xpm[] = {
"20 20 11 1",
" 	c None",
"!	c black",
"#	c #1297DB",
"$	c #1296DB",
"%	c #1195DB",
"&	c #1295DB",
"'	c #1396DB",
"(	c #1296DA",
")	c #1196DB",
"*	c #1297DC",
"+	c #1295DA",
"                    ",
"  ################  ",
" $$$$$$$$$$$$$$$$$$ ",
" $$$$$$$$$$$$$$$$$$ ",
" $$   %$    $%   $$ ",
" $    &'    '&    $ ",
" $    &'    $&    $ ",
" $()))$$$))$$$)))($ ",
" $(&&&$$&&&&$$&&&($ ",
" $    &'    '&    $ ",
" $    &'    '&    $ ",
" $*###$$####$$###*$ ",
" $$'''$$''''$$'''$$ ",
" $    &'    $&    $ ",
" $    &'    '&    $ ",
" $+   )(    ()   +$ ",
" $$$$$$$$$$$$$$$$$$ ",
"                    ",
"                    ",
"                    "};